X:8840
T:La Bigaille - Valse/Walzer/Waltz
C:Frederic Bordois
Z:abc transcription Simon Wascher
N:please mail errors to simon.wascher@chello.at
M:3/4
L:1/4
K:Gmixo
d2e|fed|B2c|dcB|
F2G|A2c|BGc|BAG|
d2e|fed|B2c|dcB|FcB|
AGF|G>AG/F/|1G3:|2G2||
|:c|BGc|BGc|BAG|F2B|
AFB|AFB|AGF|1G2:|2G3||
